public/logos/MY.svg

<?xml version="1.0" encoding="UTF-8"?>
<svg xmlns="http://www.w3.org/2000/svg" xmlns:xlink="http://www.w3.org/1999/xlink" width="176pt" height="30pt" viewBox="0 0 176 30" version="1.1">
<g id="surface1">
<path style=" stroke:none;fill-rule:nonzero;fill:rgb(33.772278%,67.7948%,21.492004%);fill-opacity:1;" d="M 176 20.492188 C 175.945312 20.546875 175.863281 20.589844 175.84375 20.652344 C 175.320312 22.28125 174.230469 23.324219 172.621094 23.867188 C 170.359375 24.632812 168.085938 24.574219 165.855469 23.816406 C 164.15625 23.242188 163.058594 21.96875 162.4375 20.292969 C 162.398438 20.191406 162.417969 20.070312 162.40625 19.902344 C 163.632812 19.585938 164.890625 19.484375 166.148438 19.28125 C 166.242188 19.453125 166.335938 19.589844 166.394531 19.738281 C 166.863281 20.945312 167.628906 21.488281 168.921875 21.507812 C 169.585938 21.515625 170.261719 21.597656 170.902344 21.339844 C 171.058594 21.277344 171.222656 21.238281 171.363281 21.15625 C 172.101562 20.738281 172.265625 20.078125 171.839844 19.261719 C 171.148438 18.761719 170.304688 18.683594 169.511719 18.488281 C 168.175781 18.152344 166.84375 17.800781 165.558594 17.304688 C 164.304688 16.816406 163.339844 15.988281 163.027344 14.640625 C 162.570312 12.648438 163.125 10.929688 165.035156 9.800781 C 166.050781 9.199219 167.203125 8.992188 168.371094 8.945312 C 169.734375 8.894531 171.082031 8.96875 172.390625 9.417969 C 174.054688 9.992188 174.996094 11.195312 175.53125 12.886719 C 174.316406 13.105469 173.15625 13.316406 171.984375 13.53125 C 171.851562 13.332031 171.730469 13.183594 171.644531 13.019531 C 171.1875 12.117188 170.378906 11.8125 169.445312 11.792969 C 168.871094 11.78125 168.292969 11.878906 167.714844 11.921875 C 167.171875 11.964844 166.78125 12.25 166.484375 12.6875 C 166.359375 13.242188 166.609375 13.570312 167.097656 13.808594 C 167.949219 14.222656 168.878906 14.386719 169.78125 14.628906 C 170.894531 14.925781 172.019531 15.179688 173.105469 15.59375 C 174.445312 16.109375 175.484375 16.867188 175.921875 18.289062 C 175.925781 18.304688 175.972656 18.304688 176 18.3125 C 176 19.039062 176 19.765625 176 20.492188 "/>
<path style=" stroke:none;fill-rule:nonzero;fill:rgb(16.287231%,22.45636%,51.708984%);fill-opacity:1;" d="M 55.933594 8.730469 C 55.851562 9.109375 55.792969 9.492188 55.6875 9.867188 C 54.433594 14.347656 53.175781 18.832031 51.914062 23.3125 C 51.855469 23.523438 51.777344 23.730469 51.699219 23.96875 C 50.246094 23.96875 48.800781 23.96875 47.289062 23.96875 C 45.859375 18.8125 44.425781 13.640625 42.988281 8.46875 C 42.953125 8.472656 42.914062 8.476562 42.875 8.480469 C 42.875 13.625 42.875 18.769531 42.875 23.960938 C 41.421875 23.960938 40.046875 23.960938 38.675781 23.960938 C 38.523438 23.355469 38.484375 4.761719 38.632812 3.734375 C 40.882812 3.734375 43.136719 3.734375 45.5 3.734375 C 46.8125 8.203125 48.136719 12.71875 49.460938 17.238281 C 49.472656 17.242188 49.492188 17.253906 49.511719 17.253906 C 49.539062 17.246094 49.582031 17.234375 49.585938 17.21875 C 50.902344 12.730469 52.21875 8.238281 53.535156 3.738281 C 55.832031 3.738281 58.109375 3.738281 60.417969 3.738281 C 60.417969 10.5 60.417969 17.21875 60.417969 23.96875 C 59.027344 23.96875 57.671875 23.96875 56.285156 23.96875 C 56.265625 23.835938 56.242188 23.730469 56.242188 23.625 C 56.207031 18.960938 56.175781 14.296875 56.152344 9.636719 C 56.152344 9.359375 56.21875 9.085938 56.253906 8.808594 C 56.265625 8.5625 56.351562 8.300781 56.117188 8.054688 C 55.859375 8.261719 55.972656 8.519531 55.933594 8.730469 "/>
<path style=" stroke:none;fill-rule:nonzero;fill:rgb(16.387939%,22.467041%,52.078247%);fill-opacity:1;" d="M 81.546875 17.394531 C 82.871094 17.265625 84.105469 17.144531 85.421875 17.019531 C 85.492188 17.269531 85.558594 17.53125 85.636719 17.789062 C 86.0625 19.242188 86.886719 20.371094 88.421875 20.707031 C 89.882812 21.023438 91.363281 21.054688 92.683594 20.15625 C 93.636719 19.507812 94.015625 18.441406 93.699219 17.476562 C 93.457031 16.746094 92.898438 16.351562 92.21875 16.132812 C 91.238281 15.816406 90.246094 15.554688 89.261719 15.273438 C 87.875 14.878906 86.472656 14.539062 85.195312 13.832031 C 83.042969 12.636719 82.035156 10.792969 82.296875 8.375 C 82.53125 6.199219 83.8125 4.707031 85.84375 3.921875 C 87.390625 3.328125 89.003906 3.160156 90.667969 3.34375 C 91.585938 3.441406 92.484375 3.550781 93.355469 3.875 C 95.523438 4.679688 96.824219 6.203125 97.203125 8.496094 C 97.253906 8.816406 97.304688 9.140625 97.371094 9.550781 C 95.964844 9.550781 94.632812 9.550781 93.246094 9.550781 C 93.195312 9.410156 93.105469 9.210938 93.054688 9.003906 C 92.71875 7.589844 91.738281 6.917969 90.378906 6.761719 C 89.550781 6.664062 88.707031 6.652344 87.894531 6.921875 C 87.554688 7.03125 87.210938 7.175781 86.917969 7.378906 C 85.832031 8.128906 85.855469 9.460938 87.011719 10.097656 C 87.683594 10.46875 88.4375 10.714844 89.175781 10.945312 C 90.707031 11.417969 92.273438 11.796875 93.792969 12.300781 C 95.378906 12.828125 96.679688 13.777344 97.367188 15.359375 C 98.832031 18.722656 97.332031 22.769531 93.535156 23.863281 C 91.324219 24.503906 89.105469 24.539062 86.867188 24.023438 C 84.15625 23.398438 82.554688 21.644531 81.785156 19.039062 C 81.707031 18.777344 81.644531 18.503906 81.605469 18.230469 C 81.566406 17.984375 81.570312 17.734375 81.546875 17.394531 "/>
<path style=" stroke:none;fill-rule:nonzero;fill:rgb(33.772278%,67.790222%,20.94574%);fill-opacity:1;" d="M 156.289062 16.433594 C 156.289062 15.238281 156.105469 14.128906 155.390625 13.121094 C 154.375 11.691406 152.125 11.570312 150.996094 12.683594 C 150.261719 13.40625 149.949219 14.277344 149.835938 15.261719 C 149.75 16 149.800781 16.738281 149.847656 17.472656 C 149.914062 18.527344 150.300781 19.421875 151.089844 20.179688 C 152.105469 21.15625 154.003906 20.914062 154.753906 20.214844 C 155.378906 19.636719 155.917969 19.023438 156.058594 18.152344 C 156.148438 17.582031 156.214844 17.007812 156.289062 16.433594 Z M 156.394531 11.09375 C 156.394531 10.484375 156.394531 9.929688 156.394531 9.332031 C 157.023438 9.183594 157.632812 9.28125 158.234375 9.261719 C 158.816406 9.242188 159.398438 9.257812 160.035156 9.257812 C 160.050781 9.488281 160.070312 9.675781 160.070312 9.859375 C 160.070312 14.386719 160.070312 18.910156 160.066406 23.4375 C 160.0625 24.519531 159.929688 25.585938 159.5625 26.613281 C 159.003906 28.175781 157.890625 29.089844 156.324219 29.570312 C 155.332031 29.875 154.308594 29.960938 153.300781 29.992188 C 151.84375 30.035156 150.363281 29.902344 148.984375 29.351562 C 147.453125 28.742188 146.007812 27.085938 146.371094 25.003906 C 147.839844 25.007812 149.285156 25.324219 150.722656 25.472656 C 150.929688 26.363281 151.25 26.753906 152.28125 26.902344 C 153.148438 27.027344 153.980469 26.933594 154.800781 26.699219 C 155.523438 26.492188 156.003906 26.007812 156.0625 25.21875 C 156.148438 24.117188 156.207031 23.011719 156.277344 21.90625 C 156.226562 21.882812 156.171875 21.855469 156.121094 21.832031 C 155.898438 22.054688 155.683594 22.285156 155.453125 22.5 C 154.109375 23.757812 152.5625 24.21875 150.722656 23.886719 C 148.859375 23.554688 147.667969 22.445312 146.785156 20.886719 C 146.148438 19.761719 145.835938 18.539062 145.8125 17.242188 C 145.789062 15.824219 145.804688 14.421875 146.308594 13.058594 C 147.019531 11.136719 148.300781 9.765625 150.246094 9.179688 C 152.230469 8.585938 154.085938 8.9375 155.632812 10.429688 C 155.832031 10.621094 156.023438 10.824219 156.222656 11.023438 C 156.242188 11.039062 156.273438 11.042969 156.394531 11.09375 "/>
<path style=" stroke:none;fill-rule:nonzero;fill:rgb(16.316223%,22.225952%,51.535034%);fill-opacity:1;" d="M 74.5625 16.105469 C 73.628906 13.609375 72.726562 11.199219 71.75 8.589844 C 70.796875 11.210938 69.917969 13.628906 69.015625 16.105469 C 70.894531 16.105469 72.667969 16.105469 74.5625 16.105469 Z M 82.027344 24.148438 C 80.515625 24.148438 79.101562 24.148438 77.605469 24.148438 C 77.042969 22.667969 76.464844 21.148438 75.890625 19.632812 C 73.148438 19.632812 70.476562 19.632812 67.761719 19.632812 C 67.210938 21.140625 66.664062 22.644531 66.117188 24.144531 C 64.65625 24.144531 63.242188 24.144531 61.777344 24.144531 C 64.394531 17.367188 66.988281 10.648438 69.589844 3.90625 C 71.039062 3.90625 72.457031 3.90625 73.960938 3.90625 C 76.628906 10.609375 79.3125 17.34375 82.027344 24.148438 "/>
<path style=" stroke:none;fill-rule:nonzero;fill:rgb(33.772278%,67.790222%,20.94574%);fill-opacity:1;" d="M 107.078125 18.308594 C 107.390625 17.085938 107.699219 15.855469 108.019531 14.632812 C 108.429688 13.0625 108.847656 11.492188 109.269531 9.925781 C 109.324219 9.714844 109.402344 9.511719 109.476562 9.285156 C 110.722656 9.285156 111.941406 9.285156 113.195312 9.285156 C 113.996094 12.359375 114.714844 15.445312 115.550781 18.503906 C 115.609375 18.507812 115.667969 18.507812 115.726562 18.507812 C 116.617188 15.433594 117.507812 12.359375 118.398438 9.28125 C 119.65625 9.28125 120.878906 9.28125 122.179688 9.28125 C 122.128906 9.496094 122.09375 9.671875 122.039062 9.839844 C 121.070312 12.910156 120.097656 15.980469 119.125 19.054688 C 118.679688 20.472656 118.242188 21.894531 117.792969 23.3125 C 117.71875 23.542969 117.59375 23.757812 117.488281 23.984375 C 116.273438 23.984375 115.105469 23.984375 113.824219 23.984375 C 112.984375 20.972656 112.179688 17.898438 111.335938 14.699219 C 110.882812 15.761719 110.761719 16.800781 110.457031 17.785156 C 110.140625 18.808594 109.902344 19.859375 109.632812 20.898438 C 109.367188 21.90625 109.105469 22.914062 108.832031 23.957031 C 107.566406 23.957031 106.351562 23.957031 105.128906 23.957031 C 104.777344 23.371094 100.617188 10.121094 100.546875 9.304688 C 101.738281 9.304688 102.925781 9.304688 104.199219 9.304688 C 105.046875 12.285156 105.898438 15.296875 106.753906 18.308594 C 106.78125 18.476562 106.808594 18.640625 106.835938 18.804688 C 106.890625 18.804688 106.941406 18.804688 106.992188 18.804688 C 107.023438 18.640625 107.050781 18.476562 107.078125 18.308594 "/>
<path style=" stroke:none;fill-rule:nonzero;fill:rgb(34.709167%,68.164062%,22.32666%);fill-opacity:1;" d="M 0 22.261719 C 1.28125 22.164062 2.371094 22.136719 3.4375 21.984375 C 4.660156 21.804688 5.863281 21.5 7.03125 21.054688 C 9.535156 20.101562 11.675781 18.621094 13.5625 16.722656 C 15.171875 15.101562 16.667969 13.382812 18.144531 11.640625 C 20.015625 9.421875 22.054688 7.378906 24.566406 5.867188 C 26.113281 4.9375 27.777344 4.28125 29.542969 3.894531 C 30.898438 3.601562 32.261719 3.382812 33.648438 3.398438 C 33.8125 3.398438 33.972656 3.421875 34.207031 3.441406 C 33.78125 4.164062 33.207031 4.597656 32.511719 4.902344 C 31.578125 5.3125 30.59375 5.601562 29.726562 6.167969 C 28.605469 6.90625 27.605469 7.757812 26.734375 8.789062 C 25.132812 10.6875 23.964844 12.867188 22.589844 14.910156 C 20.753906 17.648438 18.480469 19.953125 15.691406 21.699219 C 13.769531 22.902344 11.675781 23.773438 9.414062 24.171875 C 7.949219 24.425781 6.472656 24.425781 5.003906 24.3125 C 4.132812 24.242188 3.273438 23.988281 2.410156 23.8125 C 2.359375 23.800781 2.308594 23.761719 2.261719 23.730469 C 1.550781 23.269531 0.835938 22.804688 0 22.261719 "/>
<path style=" stroke:none;fill-rule:nonzero;fill:rgb(33.929443%,68.17627%,21.873474%);fill-opacity:1;" d="M 0.726562 21.34375 C 1.476562 20.53125 2.199219 19.699219 2.984375 18.925781 C 3.554688 18.359375 4.207031 17.882812 4.816406 17.355469 C 5.738281 16.550781 6.6875 15.773438 7.566406 14.921875 C 8.261719 14.25 8.886719 13.496094 9.503906 12.746094 C 11.910156 9.828125 14.144531 6.761719 16.976562 4.222656 C 18.703125 2.675781 20.609375 1.410156 22.832031 0.683594 C 24.066406 0.277344 25.332031 0.0429688 26.648438 0.0078125 C 28.785156 -0.0429688 30.828125 0.3125 32.828125 1.035156 C 33.796875 1.386719 34.667969 1.902344 35.589844 2.609375 C 35.339844 2.65625 35.199219 2.6875 35.058594 2.707031 C 34.976562 2.71875 34.894531 2.710938 34.808594 2.714844 C 33.199219 2.773438 31.578125 2.757812 29.976562 2.90625 C 28.050781 3.085938 26.144531 3.394531 24.417969 4.378906 C 23.5 4.90625 22.621094 5.484375 21.851562 6.210938 C 20.144531 7.816406 18.597656 9.570312 17.027344 11.308594 C 15.308594 13.210938 13.515625 15.050781 11.667969 16.832031 C 10.335938 18.121094 8.859375 19.261719 7.203125 20.140625 C 6.21875 20.664062 5.167969 21.011719 4.066406 21.125 C 2.980469 21.234375 1.871094 21.101562 0.804688 21.503906 C 0.78125 21.449219 0.753906 21.394531 0.726562 21.34375 "/>
<path style=" stroke:none;fill-rule:nonzero;fill:rgb(33.772278%,67.790222%,20.94574%);fill-opacity:1;" d="M 143.039062 23.988281 C 141.78125 23.988281 140.558594 23.988281 139.359375 23.988281 C 139.019531 23.742188 139.144531 23.40625 139.140625 23.117188 C 139.128906 20.296875 139.128906 17.476562 139.109375 14.65625 C 139.109375 14.304688 139.046875 13.941406 138.953125 13.597656 C 138.535156 12.058594 137.269531 11.746094 136.195312 11.988281 C 134.730469 12.324219 133.816406 13.261719 133.726562 14.734375 C 133.667969 15.648438 133.585938 16.558594 133.578125 17.472656 C 133.554688 19.617188 133.570312 21.765625 133.570312 23.960938 C 132.285156 23.960938 131.046875 23.960938 129.757812 23.960938 C 129.757812 19.09375 129.757812 14.222656 129.757812 9.304688 C 130.882812 9.304688 132.011719 9.304688 133.230469 9.304688 C 133.230469 9.933594 133.230469 10.578125 133.230469 11.335938 C 133.738281 10.867188 134.113281 10.449219 134.554688 10.121094 C 136.121094 8.964844 137.878906 8.675781 139.753906 9.117188 C 141.597656 9.554688 142.820312 11.121094 142.976562 13.070312 C 143.261719 16.632812 143.039062 20.199219 143.105469 23.765625 C 143.109375 23.816406 143.078125 23.867188 143.039062 23.988281 "/>
<path style=" stroke:none;fill-rule:nonzero;fill:rgb(33.772278%,67.790222%,20.94574%);fill-opacity:1;" d="M 127.148438 23.988281 C 125.875 23.988281 124.65625 23.988281 123.441406 23.988281 C 123.304688 23.316406 123.253906 11.109375 123.378906 9.304688 C 124.613281 9.304688 125.855469 9.304688 127.148438 9.304688 C 127.148438 14.167969 127.148438 19.039062 127.148438 23.988281 "/>
<path style=" stroke:none;fill-rule:nonzero;fill:rgb(38.458252%,70.352173%,26.853943%);fill-opacity:1;" d="M 0.71875 18.699219 C 1.242188 18.105469 1.714844 17.492188 2.261719 16.957031 C 4.003906 15.265625 5.511719 13.386719 6.824219 11.351562 C 7.527344 10.257812 8.082031 9.097656 8.390625 7.820312 C 8.746094 6.347656 8.597656 4.941406 8.074219 3.535156 C 7.558594 2.148438 6.101562 1.550781 4.714844 2.609375 C 3.535156 3.507812 3.207031 4.890625 3.925781 6.328125 C 4.261719 6.996094 4.820312 7.246094 5.519531 7.054688 C 6.011719 6.917969 6.589844 6.878906 6.796875 6.25 C 6.730469 5.324219 6.0625 4.5625 5.929688 3.492188 C 6.839844 4.285156 7.296875 5.171875 7.457031 6.199219 C 7.546875 6.78125 7.234375 7.292969 6.730469 7.492188 C 5.890625 7.820312 5 8.097656 4.082031 7.730469 C 3.5625 7.523438 3.144531 7.160156 3.011719 6.628906 C 2.703125 5.382812 2.625 4.109375 2.949219 2.847656 C 3.179688 1.960938 3.746094 1.367188 4.59375 0.996094 C 6.570312 0.132812 8.480469 0.621094 9.84375 2.003906 C 10.46875 2.632812 10.765625 3.417969 10.84375 4.304688 C 11.035156 6.605469 10.269531 8.648438 9.199219 10.625 C 8.1875 12.496094 6.886719 14.148438 5.441406 15.675781 C 4.355469 16.820312 3.121094 17.828125 1.714844 18.578125 C 1.441406 18.722656 1.15625 18.96875 0.71875 18.699219 "/>
<path style=" stroke:none;fill-rule:nonzero;fill:rgb(33.380127%,67.797852%,21.063232%);fill-opacity:1;" d="M 127.152344 7.234375 C 125.890625 7.234375 124.671875 7.234375 123.40625 7.234375 C 123.261719 6.671875 123.355469 6.09375 123.339844 5.519531 C 123.320312 4.941406 123.335938 4.363281 123.335938 3.746094 C 124.632812 3.746094 125.871094 3.746094 127.152344 3.746094 C 127.152344 4.886719 127.152344 6.015625 127.152344 7.234375 "/>
<path style=" stroke:none;fill-rule:nonzero;fill:rgb(16.403198%,23.712158%,55.606079%);fill-opacity:1;" d="M 55.933594 8.730469 C 55.972656 8.519531 55.859375 8.261719 56.117188 8.054688 C 56.351562 8.300781 56.265625 8.5625 56.253906 8.808594 C 56.144531 8.785156 56.039062 8.757812 55.933594 8.730469 "/>
</g>
</svg>

<svg xmlns="http://www.w3.org/2000/svg" width="176pt" height="40" viewBox="0 0 176 30"><path d="M176 20.492c-.055.055-.137.098-.156.16-.524 1.63-1.614 2.672-3.223 3.215-2.262.766-4.535.707-6.766-.05-1.699-.575-2.796-1.848-3.417-3.524-.04-.102-.02-.223-.032-.39 1.227-.317 2.485-.419 3.742-.622.094.172.188.309.247.457.468 1.207 1.234 1.75 2.527 1.77.664.008 1.34.09 1.98-.168.157-.063.32-.102.461-.184.739-.418.903-1.078.477-1.894-.692-.5-1.535-.578-2.328-.774-1.336-.336-2.668-.687-3.953-1.183-1.254-.489-2.22-1.317-2.532-2.664-.457-1.993.098-3.711 2.008-4.84 1.016-.602 2.168-.809 3.336-.856 1.363-.05 2.711.024 4.02.473 1.664.574 2.605 1.777 3.14 3.469-1.215.218-2.375.43-3.547.644-.132-.199-.254-.347-.34-.511-.457-.903-1.265-1.207-2.199-1.227-.574-.012-1.152.086-1.73.129-.543.043-.934.328-1.23.765-.126.555.124.883.613 1.122.851.414 1.78.578 2.683.82 1.114.297 2.239.55 3.324.965 1.34.515 2.38 1.273 2.817 2.695.004.016.05.016.078.023z" style="stroke:none;fill-rule:nonzero;fill:#56ad37;fill-opacity:1"/><path d="M55.934 8.73c-.082.38-.141.762-.246 1.137-1.254 4.48-2.512 8.965-3.774 13.446-.059.21-.137.417-.215.656h-4.41c-1.43-5.157-2.863-10.328-4.3-15.5l-.114.011v15.48h-4.2c-.152-.605-.19-19.198-.042-20.226H45.5c1.313 4.47 2.637 8.985 3.96 13.504.013.004.032.016.052.016.027-.008.07-.02.074-.035q1.974-6.732 3.95-13.48h6.882v20.23h-4.133c-.02-.133-.043-.239-.043-.344q-.053-6.997-.09-13.988c0-.278.067-.551.102-.828.012-.246.098-.508-.137-.754-.258.207-.144.465-.183.675" style="stroke:none;fill-rule:nonzero;fill:#2a3984;fill-opacity:1"/><path d="M81.547 17.395c1.324-.13 2.558-.25 3.875-.375.07.25.137.511.215.77.425 1.452 1.25 2.581 2.785 2.917 1.46.316 2.941.348 4.262-.55.953-.65 1.332-1.716 1.015-2.68-.242-.73-.8-1.125-1.48-1.344-.98-.317-1.973-.578-2.957-.86-1.387-.394-2.79-.734-4.067-1.441-2.152-1.195-3.16-3.039-2.898-5.457.234-2.176 1.516-3.668 3.547-4.453 1.547-.594 3.16-.762 4.824-.578.918.097 1.816.207 2.687.531 2.168.805 3.47 2.328 3.848 4.621l.168 1.055h-4.125c-.05-.14-.14-.34-.191-.547-.336-1.414-1.317-2.086-2.676-2.242-.828-.098-1.672-.11-2.484.16-.34.11-.684.254-.977.457-1.086.75-1.063 2.082.094 2.719.672.37 1.425.617 2.164.847 1.531.473 3.097.852 4.617 1.356 1.586.527 2.887 1.476 3.574 3.058 1.465 3.364-.035 7.41-3.832 8.504-2.21.64-4.43.676-6.668.16-2.71-.625-4.312-2.378-5.082-4.984a6 6 0 0 1-.18-.809c-.039-.246-.035-.496-.058-.835" style="stroke:none;fill-rule:nonzero;fill:#2a3985;fill-opacity:1"/><path d="M156.29 16.434c0-1.196-.185-2.305-.9-3.313-1.015-1.43-3.265-1.55-4.394-.437-.734.722-1.047 1.593-1.16 2.578-.086.738-.035 1.476.012 2.21.066 1.055.453 1.95 1.242 2.708 1.015.976 2.914.734 3.664.035.625-.578 1.164-1.192 1.305-2.063.09-.57.156-1.144.23-1.718m.105-5.34V9.332c.628-.148 1.238-.05 1.84-.07.581-.02 1.163-.004 1.8-.004.016.23.035.418.035.601 0 4.528 0 9.051-.004 13.579-.004 1.082-.136 2.148-.504 3.175-.558 1.563-1.671 2.477-3.238 2.957-.992.305-2.015.39-3.023.422-1.457.043-2.938-.09-4.317-.64-1.53-.61-2.976-2.266-2.613-4.348 1.469.004 2.914.32 4.352.469.207.89.527 1.28 1.558 1.43.867.124 1.7.03 2.52-.204.722-.207 1.203-.691 1.262-1.48.085-1.102.144-2.207.214-3.313l-.156-.074c-.223.223-.437.453-.668.668-1.344 1.258-2.89 1.719-4.73 1.387-1.864-.332-3.055-1.442-3.938-3-.637-1.125-.95-2.348-.972-3.645-.024-1.418-.008-2.82.496-4.183.71-1.922 1.992-3.293 3.937-3.88 1.984-.593 3.84-.242 5.387 1.25.199.192.39.395.59.594.02.016.05.02.172.07" style="stroke:none;fill-rule:nonzero;fill:#56ad35;fill-opacity:1"/><path d="M74.563 16.105 71.75 8.59c-.953 2.62-1.832 5.039-2.734 7.515zm7.464 8.043h-4.422c-.562-1.48-1.14-3-1.714-4.515h-8.13l-1.644 4.512h-4.34c2.618-6.778 5.211-13.497 7.813-20.239h4.37c2.669 6.703 5.353 13.438 8.067 20.242" style="stroke:none;fill-rule:nonzero;fill:#2a3983;fill-opacity:1"/><path d="M107.078 18.309c.313-1.223.621-2.454.942-3.676q.616-2.356 1.25-4.707c.054-.211.132-.414.207-.64h3.718c.801 3.073 1.52 6.16 2.356 9.218q.087.005.176.004l2.671-9.227h3.782c-.051.215-.086.39-.14.559q-1.455 4.604-2.915 9.215c-.445 1.418-.883 2.84-1.332 4.258-.074.23-.2.445-.305.671h-3.664c-.84-3.011-1.644-6.086-2.488-9.285-.453 1.063-.574 2.102-.879 3.086-.316 1.024-.555 2.074-.824 3.113-.266 1.008-.528 2.016-.801 3.059h-3.703c-.352-.586-4.512-13.836-4.582-14.652h3.652c.848 2.98 1.7 5.992 2.555 9.004l.082.496h.156q.046-.245.086-.496" style="stroke:none;fill-rule:nonzero;fill:#56ad35;fill-opacity:1"/><path d="M0 22.262c1.281-.098 2.371-.125 3.438-.278a17 17 0 0 0 3.593-.93c2.504-.952 4.645-2.433 6.532-4.331 1.609-1.621 3.105-3.34 4.582-5.082 1.87-2.22 3.91-4.262 6.421-5.774a16.4 16.4 0 0 1 4.977-1.972c1.355-.293 2.719-.512 4.105-.497.164 0 .325.024.559.043-.426.723-1 1.157-1.695 1.461-.934.41-1.918.7-2.785 1.266-1.122.738-2.122 1.59-2.993 2.621-1.601 1.899-2.77 4.078-4.144 6.121-1.836 2.738-4.11 5.043-6.899 6.79-1.921 1.202-4.015 2.073-6.277 2.472-1.465.254-2.941.254-4.41.14-.871-.07-1.73-.324-2.594-.5-.05-.011-.101-.05-.148-.082C1.55 23.27.836 22.805 0 22.262" style="stroke:none;fill-rule:nonzero;fill:#59ae39;fill-opacity:1"/><path d="M.727 21.344c.75-.813 1.472-1.645 2.257-2.418.57-.567 1.223-1.043 1.832-1.57.922-.805 1.872-1.583 2.75-2.434.696-.672 1.32-1.426 1.938-2.176 2.406-2.918 4.64-5.984 7.473-8.523 1.726-1.547 3.632-2.813 5.855-3.54 1.234-.406 2.5-.64 3.816-.675 2.137-.051 4.18.305 6.18 1.027.969.352 1.84.867 2.762 1.574-.25.047-.39.079-.531.098-.082.012-.164.004-.25.008-1.61.058-3.23.043-4.832.191-1.926.18-3.832.489-5.559 1.473-.918.527-1.797 1.105-2.566 1.832-1.707 1.605-3.254 3.36-4.825 5.098a112 112 0 0 1-5.359 5.523c-1.332 1.29-2.809 2.43-4.465 3.309-.984.523-2.035.87-3.137.984-1.086.11-2.195-.023-3.261.379a2 2 0 0 0-.078-.16" style="stroke:none;fill-rule:nonzero;fill:#57ae38;fill-opacity:1"/><path d="M143.04 23.988h-3.68c-.34-.246-.215-.582-.22-.87-.011-2.821-.011-5.641-.03-8.462 0-.351-.063-.715-.157-1.058-.418-1.54-1.683-1.852-2.758-1.61-1.465.336-2.379 1.274-2.468 2.746-.059.914-.141 1.825-.149 2.739-.023 2.144-.008 4.293-.008 6.488h-3.812V9.305h3.472v2.03c.508-.468.883-.886 1.325-1.214 1.566-1.156 3.324-1.445 5.199-1.004 1.844.438 3.066 2.004 3.223 3.953.285 3.563.062 7.13.128 10.696.004.05-.027.101-.066.222M127.148 23.988h-3.707c-.136-.672-.187-12.879-.062-14.683h3.77z" style="stroke:none;fill-rule:nonzero;fill:#56ad35;fill-opacity:1"/><path d="M.719 18.7c.523-.595.996-1.208 1.543-1.743a31.8 31.8 0 0 0 4.562-5.605c.703-1.094 1.258-2.254 1.567-3.532.355-1.472.207-2.879-.317-4.285-.515-1.387-1.972-1.984-3.36-.926-1.179.899-1.507 2.282-.788 3.72.336.667.894.917 1.594.726.492-.137 1.07-.176 1.277-.805-.067-.926-.734-1.687-.867-2.758.91.793 1.367 1.68 1.527 2.707a1.17 1.17 0 0 1-.727 1.293c-.84.328-1.73.606-2.648.238-.52-.207-.937-.57-1.07-1.101-.309-1.246-.387-2.52-.063-3.781.23-.887.797-1.48 1.645-1.852C6.57.133 8.48.621 9.844 2.004c.625.629.922 1.414 1 2.3.191 2.301-.574 4.344-1.645 6.321-1.011 1.871-2.312 3.523-3.758 5.05-1.086 1.145-2.32 2.153-3.726 2.903-.274.145-.559.39-.996.121" style="stroke:none;fill-rule:nonzero;fill:#62b344;fill-opacity:1"/><path d="M127.152 7.234h-3.746c-.144-.562-.05-1.14-.066-1.714-.02-.579-.004-1.157-.004-1.774h3.816z" style="stroke:none;fill-rule:nonzero;fill:#55ad36;fill-opacity:1"/><path d="M55.934 8.73c.039-.21-.075-.468.183-.675.235.246.149.508.137.754q-.164-.036-.32-.079" style="stroke:none;fill-rule:nonzero;fill:#2a3c8e;fill-opacity:1"/></svg>
